web/public/background-7.svg

<svg style="object-fit:cover" id="my-svg" version="1" baseProfile="full" width="100%" height="100%" viewBox="0 0 2560 969" xmlns="http://www.w3.org/2000/svg"><rect width="2560" height="969" fill="#ffffff"/><path transform="scale(1, 1)" d="M 0,969 V 0,678 C 489.66666666666663,803 979.3333333333333,928 1406,928 C 1832.6666666666667,928 2196.3333333333335,803 2560,678 C 2560,678 2560,969 2560,969 Z" stroke="none" stroke-width="0" fill="#f5df4d90" class="transition-all duration-300 ease-in-out delay-150" style="transform-origin: center center;"/><path transform="scale(1, 1)" d="M 0,969 V 0,1017 C 345.66666666666663,898.5 691.3333333333333,780 1118,780 C 1544.6666666666667,780 2052.3333333333335,898.5 2560,1017 C 2560,1017 2560,969 2560,969 Z" stroke="none" stroke-width="0" fill="#f5df4dff" class="transition-all duration-300 ease-in-out delay-150" style="transform-origin: center center;"/></svg>

<svg style="object-fit:cover" version="1" baseProfile="full" viewBox="0 0 2560 969" xmlns="http://www.w3.org/2000/svg"><path fill="#fff" d="M0 0H2560V969H0z"/><path d="M0 969V0v678c489.667 125 979.333 250 1406 250 426.667 0 790.333-125 1154-250v291z" fill="#f5df4d90" class="transition-all duration-300 ease-in-out delay-150" style="transform-origin:center center"/><path d="M0 969V0v1017c345.667-118.5 691.333-237 1118-237 426.667 0 934.333 118.5 1442 237v-48z" fill="#f5df4dff" class="transition-all duration-300 ease-in-out delay-150" style="transform-origin:center center"/></svg>
